X: 1
T: Down The Broom
R: reel
M: 4/4
L: 1/8
K: Ador
|: EAAG ~A2Ad | eg~g2 (3efg ed | BGGF {A}G2GE |DEGA BA~A2 |
EAAG {B}A2Bd | eg~g2 eg~g2 |eggf gaba |1 gedB BAAG :|2 gedB BAeg||
|: a2eg ageg | agbg agef | ~g2eg dgeg |gbaf gedg |
a2eg ageg | agbg aged |eg~g2 gaba |1 gedB BAeg :|2 gedB BAFA||


Tune 514	Setting 27216

